**kern	**kern	**kern	**kern	**harm
*staff4	*staff3	*staff2	*staff1	*staff1
=1-	=1-	=1-	=1-	=1-
*clefF4	*clefG2	*clefG2	*clefG2	*
*k[]	*k[]	*k[]	*k[]	*
*M6/8	*M6/8	*M6/8	*M6/8	*
*	*	*	*MM100	*
*C:	*C:	*C:	*C:	*C:
4C'/	8c/L	4c'/	4c'/	I
.	8c/	.	.	.
8r	8c/J	8r	8r	.
4.r	8c/L	4.r	4.r	.
.	8c/	.	.	.
.	8c/J	.	.	.
=2	=2	=2	=2	=2
*clefG2	*	*	*	*
8c/L	8e/L	8g/L	8g/L	I
8c/	8e/	8g/	8cc/	.
8c/J	8e/J	8g/J	8cc/J	.
8c/L	8e/L	8g/L	8cc\L	.
8c/	8e/	8g/	8b\	.
8c/J	8e/J	8g/J	8cc\J	.
=3	=3	=3	=3	=3
8c/L	8f/L	8g/L	8.dd\L	V7
8c/	8f/	8g/	.	.
.	.	.	16ee\K	.
8c/J	8f/J	8g/J	8dd\J	.
8c/L	8f/L	8g/L	4.dd'\	.
8c/	8f/	8g/	.	.
8c/J	8f/J	8g/J	.	.
=4	=4	=4	=4	=4
!!linebreak:original
8c/L	8f/L	8g/L	16cc#\LL	V7
.	.	.	16dd\	.
8c/	8f/	8g/	16ee\	.
.	.	.	16dd\	.
8c/J	8f/J	8g/J	16ff\	.
.	.	.	16ee\JJ	.
8c/L	8f/L	8g/L	4.dd'\	.
8c/	8f/	8g/	.	.
8c/J	8f/J	8g/J	.	.
=5	=5	=5	=5	=5
*clefF4	*	*	*	*
8B\L	8f/L	8g/L	8g\L	V65
8B\	8f/	8g/	8dd\	.
8B\J	8f/J	8g/J	8dd\J	.
8B\L	8f/L	8g/L	8dd\L	.
8B\	8f/	8g/	8cc\	.
8B\J	8f/J	8g/J	8dd\J	.
=6	=6	=6	=6	=6
*clefG2	*	*	*	*
8c/L	8e/L	8g/L	8.ee\L	I
8c/	8e/	8g/	.	.
.	.	.	16ff\K	.
8c/J	8e/J	8g/J	8ee\J	.
8c/L	8e/L	8g/L	4.ee'\	.
8c/	8e/	8g/	.	.
8c/J	8e/J	8g/J	.	.
=7	=7	=7	=7	=7
8c/L	8e/L	8g/L	16dd#\LL	I
.	.	.	16ee\	.
8c/	8e/	8g/	16ff\	.
.	.	.	16ee\	.
8c/J	8e/J	8g/J	16aa\	.
.	.	.	16gg\JJ	.
8c/L	8e/L	8g/L	4.gg'\	.
8c/	8e/	8g/	.	.
8c/J	8e/J	8g/J	.	.
=8	=8	=8	=8	=8
!!linebreak:original
8c/L	8e/L	8g/L	16bb\LL	I
.	.	.	16ccc\	.
8c/	8e/	8g/	16ddd\	.
.	.	.	16ccc\	.
8c/J	8e/J	8g/J	16eee\	.
.	.	.	16ccc\JJ	.
8c/L	8e/L	8g/L	4.gg'\	.
8c/	8e/	8g/	.	.
8c/J	8e/J	8g/J	.	.
=9	=9	=9	=9	=9
*clefF4	*	*	*	*
8E\L	8e/L	8g/L	8gg\L	I6
8E\	8g/	8cc/	8ccc\	.
8E\J	8g/J	8cc/J	8ccc\J	.
8E\L	8g/L	8cc\L	8ccc\L	.
8E\	8g/	8b\	8bb\	.
8E\J	8g/J	8cc\J	8ccc\J	.
=10	=10	=10	=10	=10
8F\L	[4.c/	4.b-\	4.bb-\	IV
8F\	.	.	.	.
8F\J	.	.	.	.
8F\L	4c/]	4a/	4aa\	.
8F\	.	.	.	.
8E\J	8g/	8cc#\	8gg\	viio6/ii
=11	=11	=11	=11	=11
4D\	4a/	4dd\	8gg\L	ii
.	.	.	8ff#\	.
8G\	8d/	8b\	8ffn\J	V7
8C\L	8g/L	8cc\L	8ee\L	I
8F\	8a/	8a\	8dd\	ii6
8F#\J	8d/J	8a\J	8cc\J	V65/V
=12	=12	=12	=12	=12
!!pagebreak:original
4.G'\	4.d'/	8g/L	8b\L	V
.	.	8a/	8cc\	.
.	.	8a#/J	8cc#\J	.
4.r	8r	8b\L	4.dd'\	.
.	8g/L	8b\	.	.
.	8g/J	8b\J	.	.
=13	=13	=13	=13	=13
*clefG2	*	*	*	*
8f/L	8g/L	8b\L	16cc#\LL	V42
.	.	.	16dd\	.
8f/	8g/	8b\	16ff\	.
.	.	.	16ee\	.
8f/J	8g/J	8b\J	16gg\	.
.	.	.	16ff\JJ	.
8f/L	8g/L	8b\L	8aa\L	.
8f/	8g/	8b\	8aa\	.
8f/J	8g/J	8b\J	8aa\J	.
=14	=14	=14	=14	=14
8f/L	8g/L	8b\L	16cc#\LL	.
.	.	.	16dd\	.
8f/	8g/	8b\	16ff\	.
.	.	.	16ee\	.
8f/J	8g/J	8b\J	16gg\	.
.	.	.	16ff\JJ	.
8f/L	8g/L	8b\L	4.aa\	.
8f/	8g/	8b\	.	.
8f/J	8g/J	8b\J	.	.
=15	=15	=15	=15	=15
8f/L	8g/L	8b\L	16cc#\LL	.
.	.	.	16dd\	.
8f/	8g/	8b\	16ff\	.
.	.	.	16ee\	.
8f/J	8g/J	8b\J	16gg\	.
.	.	.	16ff\JJ	.
8f/L	8g/L	8b\L	16bb-\LL	.
.	.	.	16aa\	.
8f/	8g/	8b\	16gg\	.
.	.	.	16ff\	.
8f/J	8g/J	8b\J	16ee\	.
.	.	.	16dd\JJ	.
=16	=16	=16	=16	=16
!!linebreak:original
8f/L	8g/L	8b\L	16cc#\LL	.
.	.	.	16dd\	.
8f/	8g/	8b\	16ff\	.
.	.	.	16ee\	.
8f/J	8g/J	8b\J	16gg\	.
.	.	.	16ff\JJ	.
8f/L	8g/L	8b\L	4.aa\	.
8f/	8g/	8b\	.	.
8f/J	8g/J	8b\J	.	.
=17	=17	=17	=17	=17
4.e'/	2.g/	[2.cc\	8gg\L	I64
.	.	.	16aa\L	.
.	.	.	16bb\	.
.	.	.	16ccc\	.
.	.	.	16ddd\JJ	.
*clefF4	*	*	*	*
4.E\	.	.	16eee\LL	I6
.	.	.	16fff\	.
.	.	.	16ggg\	.
.	.	.	16aaa\	.
.	.	.	16bbb\	.
.	.	.	16cccc\JJ	.
=18	=18	=18	=18	=18
8F\L	8a/L	4.cc\]	4.cccc\	IV
8F\	8a/	.	.	.
8F\J	8a/J	.	.	.
8F\L	8a/L	8cc/L	16bbb\LL	.
.	.	.	16aaa\	.
8F\	8a/	8a/	16ggg\	.
.	.	.	16fff\	.
8F\J	8a/J	8f/J	16eee\	.
.	.	.	16ddd\JJ	.
=19	=19	=19	=19	=19
!!linebreak:original
8G\L	8g/L	4.e/	4.ccc\	C64
8G\	8g/	.	.	.
8G\J	8g/J	.	.	.
*	*clefF4	*	*	*
8G\L	8B\L	8f/L	8ddd\L	V7
8G\	8B\	8e/	8ccc\	.
8G\J	8B\J	8f/J	8ddd\J	.
=20	=20	=20	=20	=20
8C/L	8c\L	8e/L	8.ccc\L	I
8C/	8c\	8e/	.	.
.	.	.	16gg\K	.
8C/J	8c\J	8e/J	8eee\J	.
4.C'/	4.c'\	4.e'/	4.ccc'\	.
=21	=21	=21	=21	=21
*	*	*clefF4	*	*
*a:	*a:	*a:	*a:	*a:
8AA/L	8A\L	8A\L	4A'/	i
8AA/	8A\	8A\	.	.
8AA/J	8A\J	8A\J	8r	.
8AA/L	8A\L	8A\L	4.r	.
8AA/	8A\	8A\	.	.
8AA/J	8A\J	8A\J	.	.
=22	=22	=22	=22	=22
*	*	*clefG2	*	*
8GG#/L	8B/L	8d/L	[4.e/	V65
*	*clefG2	*	*	*
8AA/	8c/	8c/	.	.
8BB/J	8d/J	8B/J	.	.
4.AA/	4.c/	4.c/	8e/L]	i
.	.	.	8cc/	.
.	.	.	8a/J	.
=23	=23	=23	=23	=23
!!pagebreak:original
8GG#/L	8B/L	8d/L	[4.e/	V65
8AA/	8c/	8c/	.	.
8BB/J	8d/J	8B/J	.	.
4.AA/	4.c/	4.c/	16e/LL]	i
.	.	.	16ee/	.
.	.	.	16b/	.
.	.	.	16cc/	.
.	.	.	16g#/	.
.	.	.	16a/JJ	.
=24	=24	=24	=24	=24
*G:	*G:	*G:	*G:	*G:
8FF#/L	8A/L	8c/L	[4.d/	V65
*	*	*clefF4	*	*
8GG/	8B/	8B/	.	.
8AA/J	8c/J	8A/J	.	.
4.GG/	4.B/	4B\	8d/L]	I
.	.	.	8b/	.
.	.	8d\	8g/J	.
=25	=25	=25	=25	=25
[4.C/	[4.c/	2.e\	8e/L	IV
.	.	.	8ee/	.
.	.	.	8cc/J	.
4C/]	4c/]	.	8b/L	viiom7/V
.	.	.	8a/	.
8C#/	8c#/	.	8g/J	.
=26	=26	=26	=26	=26
!!linebreak:original
*	*	*clefG2	*	*
4.D\	4.d'/	8d/L	8f#/L	V
.	.	8e/	8g/	.
.	.	8f/J	8g#/J	.
*	*clefF4	*	*	*
8D\L	8F#\L	8f#/L	4.a'/	V7
8D\	8F#\	8c/	.	.
8D\J	8F#\J	8c/J	.	.
=27	=27	=27	=27	=27
8D\L	8F#\L	8c/L	16g#\LL	.
.	.	.	16a\	.
8D\	8F#\	8c/	16cc\	.
.	.	.	16b\	.
8D\J	8F#\J	8c/J	16dd\	.
.	.	.	16cc\JJ	.
8D\L	8F#\L	8c/L	8ee\L	.
8D\	8F#\	8c/	8ee\	.
8D\J	8F#\J	8c/J	8ee\J	.
=28	=28	=28	=28	=28
8D\L	8F#\L	8c/L	16g#\LL	.
.	.	.	16a\	.
8D\	8F#\	8c/	16cc\	.
.	.	.	16b\	.
8D\J	8F#\J	8c/J	16dd\	.
.	.	.	16cc\JJ	.
8D\L	8F#\L	8c/L	4.ee\	.
8D\	8F#\	8c/	.	.
8D\J	8F#\J	8c/J	.	.
=29	=29	=29	=29	=29
!!linebreak:original
8D\L	8F#\L	8c/L	16g#/LL	.
.	.	.	16a/	.
8D\	8F#\	8c/	16a#/	.
.	.	.	16b/	.
8D\J	8F#\J	8c/J	16cc/	.
.	.	.	16cc#/JJ	.
8D\L	8F#\L	8c/L	16dd\LL	.
.	.	.	16dd#\	.
8D\	8F#\	8c/	16ee\	.
.	.	.	16ddn\	.
8D\J	8F#\J	8c/J	16ccn\	.
.	.	.	16b\JJ	.
=30	=30	=30	=30	=30
8D\L	8F#\L	8c/L	16g#\LL	.
.	.	.	16a\	.
8D\	8F#\	8c/	16cc\	.
.	.	.	16b\	.
8D\J	8F#\J	8c/J	16dd\	.
.	.	.	16cc\JJ	.
8D\L	8F#\L	8c/L	4.ee\	.
8D\	8F#\	8c/	.	.
8D\J	8F#\J	8c/J	.	.
=31	=31	=31	=31	=31
2.BB/	[2.G\	2.d/	16cc#\LL	I6
.	.	.	16dd\	.
.	.	.	16gg\	.
.	.	.	16ff#\	.
.	.	.	16bb\	.
.	.	.	16aa\JJ	.
.	.	.	16gg\LL	.
.	.	.	16ff#\	.
.	.	.	16ffn\	.
.	.	.	16ee\	.
.	.	.	16ee-\	.
.	.	.	16dd\JJ	.
=32	=32	=32	=32	=32
!!pagebreak:original
4.C'/	4G\]	4.G'/	16dd#\LL	IV
.	.	.	16ee\	.
.	.	.	16ff#\	.
.	.	.	16gg\	.
.	8r	.	16ee-\	.
.	.	.	16een\JJ	.
4.r	4.r	4.r	16b/LL	ii6
.	.	.	16cc/	.
.	.	.	16g#/	.
.	.	.	16a/	.
.	.	.	16cc/	.
.	.	.	16a/JJ	.
=33	=33	=33	=33	=33
*	*clefG2	*	*	*
8D\L	8d/L	8B/L	4.g/	C64
8D\	8B/	8d/	.	.
8D\J	8B/J	8g/J	.	.
8D\L	8c/L	8f#/L	4.a/	V7
8D\	8c/	8f#/	.	.
8D\J	8c/J	8f#/J	.	.
=34	=34	=34	=34	=34
4.G'\	4.B'/	8g\L	4g'/	I
*	*	*clefF4	*	*
.	.	8G\	.	.
.	.	8G\J	8r	.
4.r	4.r	8G\L	4.r	.
.	.	8G\	.	.
.	.	8G\J	.	.
=35	=35	=35	=35	=35
*	*clefF4	*	*	*
4.r	2.D#\	8G\L	2.r	I+
.	.	8G\	.	.
.	.	8G\J	.	.
4.BB/	.	8G\L	.	.
.	.	8G\	.	.
.	.	8G\J	.	.
=36	=36	=36	=36	=36
!!linebreak:original
[2.C/	[2.E\	8G\L	2.r	IV
.	.	8G\	.	.
.	.	8G\J	.	.
.	.	8G#\L	.	IV+
.	.	8G#\	.	.
.	.	8G#\J	.	.
=37	=37	=37	=37	=37
4.C/]	2.E\]	4.A\	8g/L	ii65
.	.	.	8g/	.
.	.	.	8g/J	.
4.C#/	.	4.B-\	8g/L	viio7/V
.	.	.	8g/	.
.	.	.	8g/J	.
=38	=38	=38	=38	=38
*	*	*clefG2	*	*
*B-:	*B-:	*B-:	*B-:	*B-:
8F\L	8B-/L	8d/L	8f/L	C64
8F\	8B-/	8d/	8f/	.
*	*clefG2	*	*	*
8F\J	8B-/J	8d/J	8f/J	.
8F\L	8c/L	8e-/L	8f/L	V7
8F\	8c/	8e-/	8g/	.
8F\J	8c/J	8e-/J	8a/J	.
=39	=39	=39	=39	=39
4.BB-'/	4.B-'/	8d\L	4.b-'\	I
*	*	*clefF4	*	*
.	.	8B-\	.	.
.	.	8B-\J	.	.
4.r	4.r	8B-\L	4.r	.
.	.	8B-\	.	.
.	.	8B-\J	.	.
=40	=40	=40	=40	=40
!!linebreak:original
*	*clefF4	*	*	*
4.r	2.F#\	8B-\L	2.r	I+
.	.	8B-\	.	.
.	.	8B-\J	.	.
4.D\	.	8B-\L	.	.
.	.	8B-\	.	.
.	.	8B-\J	.	.
=41	=41	=41	=41	=41
[2.E-\	[2.G\	8B-\L	2.r	IV
.	.	8B-\	.	.
.	.	8B-\J	.	.
.	.	8Bn\L	.	IV+
.	.	8B\	.	.
.	.	8B\J	.	.
=42	=42	=42	=42	=42
*	*	*clefG2	*	*
4.E-\]	2.G\]	4.c/	8b-\L	ii65
.	.	.	8b-\	.
.	.	.	8b-\J	.
4.En\	.	4.d-/	8b-\L	viio7/V
.	.	.	8b-\	.
.	.	.	8b-\J	.
=43	=43	=43	=43	=43
*D-:	*D-:	*D-:	*D-:	*D-:
8A-\L	8d-\L	8f/L	8a-/L	C64
8A-\	8d-\	8f/	8a-/	.
*	*clefG2	*	*	*
8A-\J	8d-\J	8f/J	8a-/J	.
8A-\L	8e-/L	8g-/L	8a-\L	V7
8A-\	8e-/	8g-/	8b-\	.
8A-\J	8e-/J	8g-/J	8cc\J	.
=44	=44	=44	=44	=44
!!pagebreak:original
4.D-'\	4.d-'/	8f/L	4.dd-'\	I
.	.	8d-/	.	.
.	.	8d-/J	.	.
4.r	4.r	8d-/L	4.r	.
.	.	8d-/	.	.
.	.	8d-/J	.	.
=45	=45	=45	=45	=45
2.r	8d-/L	8e-/L	8g/L	V42/V
.	8d-/	8e-/	8g/	.
.	8d-/J	8e-/J	8g/J	.
.	8c/L	8e-/L	8a-/L	V6
.	8c/	8e-/	8a-/	.
.	8c/J	8e-/J	8a-/J	.
=46	=46	=46	=46	=46
*clefG2	*	*	*	*
*G:	*G:	*G:	*G:	*G:
8c/L	8e-/L	8f#/L	8a/L	viio43
8c/	8e-/	8f#/	8a/	.
8c/J	8e-/J	8f#/J	8a/J	.
8c#/L	8en/L	8g/L	8b-\L	viio7/V
8c#/	8e/	8g/	8b-\	.
8c#/J	8e/J	8g/J	8b-\J	.
=47	=47	=47	=47	=47
!!linebreak:original
8d\L	8d/L	8g/L	8d/L 8bn/	C64
*clefF4	*	*	*	*
8D\ 8B\	8B/ 8g/	8g/ 8b/	8d/ 8dd/	.
8D\J 8B\	8B/J 8g/	8g/J 8b/	8d/J 8dd/	.
8D\L 8B\	8B/L 8g/	8g/L 8b/	8d\L 8dd\	.
8D\ 8B\	8B/ 8g/	8g/ 8b/	8b\ 8gg\	.
8D\J 8B\	8B/J 8g/	8g/J 8b/	8b\J 8gg\	.
=48	=48	=48	=48	=48
8D/L 8B/	8B/L 8g/	8g\L 8b\	8b\L 8gg\	.
8DD/ 8BB/	8B/ 8g/	8b\ 8gg\	8bb\	.
8DD/J 8BB/	8B/J 8g/	8b\J 8gg\	8bb\J	.
8DD/L 8BB/	8B/L 8g/	8b\L 8gg\	8bb\L	.
8DD/ 8BB/	8B/ 8g/	8b\ 8gg\	8ddd\	.
8DD/J 8BB/	8B/J 8g/	8b\J 8gg\	8ddd\J	.
=49	=49	=49	=49	=49
4DD'/ 4BB'/	4B'/ 4g'/	4b'\ 4gg'\	8ddd\L	.
.	.	.	16ccc#\L	.
.	.	.	16ddd\	.
8r	8r	8r	16cccn\	.
.	.	.	16bb\JJ	.
4.r	4.r	4.r	16aa\LL	.
.	.	.	16gg\	.
.	.	.	16ff#\	.
.	.	.	16gg\	.
.	.	.	16bb\	.
.	.	.	16aa\JJ	.
=50	=50	=50	=50	=50
!!linebreak:original
2.r	2.r	2.r	16gg\LL	.
.	.	.	16ff#\	.
.	.	.	16ee\	.
.	.	.	16dd\	.
.	.	.	16cc\	.
.	.	.	16b\JJ	.
.	.	.	16a/LL	.
.	.	.	16g/	.
.	.	.	16f#/	.
.	.	.	16e/	.
.	.	.	16d/	.
.	.	.	16c#/JJ	.
=51	=51	=51	=51	=51
*	*clefG2	*	*	*
8D\L	8g/L	8b\L	4.d/	.
8D\	8g/	8b\	.	.
8D\J	8g/J	8b\J	.	.
8D\L	8f#/L	8cc\L	4.aa\	V7
8D\	8f#/	8cc\	.	.
8D\J	8f#/J	8cc\J	.	.
=52	=52	=52	=52	=52
8GG/L	4.g'/	[4.b\	4gg\	I
8GG/	.	.	.	.
8GG/J	.	.	8ff#\	.
8GG/L	8d/L	8b\L]	8ffn\L	V7
8GG/	8e/	8cc\	8ee\	.
8GG/J	8f#/J	8cc\J	8ee-\J	.
=53	=53	=53	=53	=53
8GG/L	8g\L	8b/L	4dd\	I
*	*clefF4	*	*	*
8GG/	8B\	8d/	.	.
8GG/J	8B-\J	8e/J	8cc#\	.
8GG/L	4A\	4f#/	8ccn/L	viio6
8GG/	.	.	8a/	.
8GG/J	8c\	8a/	8f#/J	.
=54	=54	=54	=54	=54
!!pagebreak:original
8GG/L	8B\L	8g/L	4g/	I
8GG/	8B\	8d/	.	.
8GG/J	8B\J	8d/J	8b\	.
4.GG'/	4.B'\	4.d'/	4.g'/	.
*-	*-	*-	*-	*-
